rospo-icon-theme-classic-common/24x24/apps/sanctum-2.svg

<svg height="24" viewBox="0 0 24 24" width="24" xmlns="http://www.w3.org/2000/svg"><path d="m12 2.5v10h10a10 10 0 0 0 -10-10zm0 10h-10a10 10 0 0 0 10 10z" opacity=".2"/><path d="m12 2v10h10a10 10 0 0 0 -10-10zm0 10h-10a10 10 0 0 0 10 10z" fill="#e4e4e4"/><path d="m12 2v .5a10 10 0 0 1 9.974609 9.5h.025391a10 10 0 0 0 -10-10zm-10 10a10 10 0 0 0  .02539.5h9.97461v-.5z" fill="#fff" opacity=".2"/><circle cx="12" cy="12.5" opacity=".2" r="8"/><circle cx="12" cy="12" fill="#fff" r="8"/><circle cx="12" cy="12" fill="#3ca2e4" r="6"/><path d="m10 9.4999h4v3h-4v3h4" style="opacity:.2;fill:none;stroke:#000;stroke-width:2;stroke-linecap:round;stroke-linejoin:round"/><path d="m10 9h4v3h-4v3h4" fill="none" stroke="#ffc34c" stroke-linecap="round" stroke-linejoin="round" stroke-width="2"/><path d="m10 8a1.0001 1.0001 0 0 0 -.9804688 1.2460938 1.0001 1.0001 0 0 1  .9804688-.7460938h4a1.0001 1.0001 0 0 1 1 1v-.5a1.0001 1.0001 0 0 0 -1-1zm0 3a1.0001 1.0001 0 0 0 -1 1v .5a1.0001 1.0001 0 0 1 1-1h3v-.5zm1 3v .5h3a1.0001 1.0001 0 0 1  .980469.753906 1.0001 1.0001 0 0 0 -.980469-1.253906z" fill="#fff" fill-rule="evenodd" opacity=".2"/></svg>

<svg xmlns="http://www.w3.org/2000/svg" width="24" height="24" version="1.1" viewBox="0 0 24 24">
 <path d="m 12,2.5 0,10 10,0 A 10,10 0 0 0 12,2.5 Z m 0,10 -10,0 a 10,10 0 0 0 10,10 l 0,-10 z" style="opacity:0.2"/>
 <path style="fill:#cccccc" d="m 12,2 0,10 10,0 A 10,10 0 0 0 12,2 Z m 0,10 -10,0 a 10,10 0 0 0 10,10 l 0,-10 z"/>
 <path style="opacity:0.2;fill:#ffffff" d="m 12,2 0,0.5 A 10,10 0 0 1 21.974609,12 L 22,12 A 10,10 0 0 0 12,2 Z M 2,12 a 10,10 0 0 0 0.02539,0.5 L 12,12.5 12,12 2,12 Z"/>
 <circle cx="12" cy="12.5" r="8" style="opacity:0.2"/>
 <circle style="fill:#ffffff" cx="12" cy="12" r="8"/>
 <circle cx="12" cy="12" r="6" style="fill:#3ca2e4"/>
 <path d="m 10,9.4999 4,0 0,3 -4,0 0,3 4,0" style="opacity:0.2;fill:none;stroke:#000000;stroke-width:2;stroke-linecap:round;stroke-linejoin:round"/>
 <path style="fill:none;stroke:#ffc34c;stroke-width:2;stroke-linecap:round;stroke-linejoin:round" d="m 10,9 4,0 0,3 -4,0 0,3 4,0"/>
 <path style="opacity:0.2;fill:#ffffff;fill-rule:evenodd" d="M 10 8 A 1.0001 1.0001 0 0 0 9.0195312 9.2460938 A 1.0001 1.0001 0 0 1 10 8.5 L 14 8.5 A 1.0001 1.0001 0 0 1 15 9.5 L 15 9 A 1.0001 1.0001 0 0 0 14 8 L 10 8 z M 10 11 A 1.0001 1.0001 0 0 0 9 12 L 9 12.5 A 1.0001 1.0001 0 0 1 10 11.5 L 13 11.5 L 13 11 L 10 11 z M 11 14 L 11 14.5 L 14 14.5 A 1.0001 1.0001 0 0 1 14.980469 15.253906 A 1.0001 1.0001 0 0 0 14 14 L 11 14 z"/>
</svg>
